public/svgs/value/title1.svg

<svg width="1840" height="368" viewBox="0 0 1840 368" fill="none" xmlns="http://www.w3.org/2000/svg">
<path d="M15.3 338V213.8H37.26V318.02H93.42V338H15.3ZM111.234 308.66V243.14C111.234 223.58 121.014 213.8 140.574 213.8H181.794C201.354 213.8 211.134 223.58 211.134 243.14V308.66C211.134 328.22 201.354 338 181.794 338H140.574C121.014 338 111.234 328.22 111.234 308.66ZM133.194 310.28C133.194 315.44 135.834 318.02 141.114 318.02H181.254C186.534 318.02 189.174 315.44 189.174 310.28V241.52C189.174 236.36 186.534 233.78 181.254 233.78H141.114C135.834 233.78 133.194 236.36 133.194 241.52V310.28ZM239.948 338V213.8H263.888L318.968 302.36V213.8H340.928V338H317.168L261.908 249.44V338H239.948ZM369.809 308.66V243.14C369.809 223.58 379.589 213.8 399.149 213.8H451.889L462.509 222.08V233.78H399.689C394.409 233.78 391.769 236.36 391.769 241.52V310.28C391.769 315.44 394.409 318.02 399.689 318.02H444.149V283.64H417.869V263.66H466.109V338H399.149C379.589 338 369.809 328.22 369.809 308.66ZM493.073 338V213.8H576.593V233.78H515.033V263.66H571.193V283.64H515.033V318.02H576.593V338H493.073ZM588.947 218.12L591.827 213.8H610.907L641.687 318.02H645.107L675.887 213.8H695.147L697.847 218.12L661.127 338H625.487L588.947 218.12ZM716.491 338V213.8H738.451V338H716.491ZM758.07 233.78V213.8H858.33V233.78H819.27V338H797.13V233.78H758.07ZM866.154 218.12L868.854 213.8H887.574L916.914 270.14L946.434 213.8H965.334L967.854 218.12L928.074 293.36V338H905.934V293.36L866.154 218.12ZM1029.73 338V213.8H1113.25V233.78H1051.69V269.06H1107.85V289.04H1051.69V338H1029.73ZM1132.89 308.66V213.8H1154.85V310.28C1154.85 315.44 1157.49 318.02 1162.77 318.02H1199.31C1204.59 318.02 1207.23 315.44 1207.23 310.28V213.8H1229.19V308.66C1229.19 328.22 1219.41 338 1199.85 338H1162.23C1142.67 338 1132.89 328.22 1132.89 308.66ZM1258.78 338V213.8H1282.72L1337.8 302.36V213.8H1359.76V338H1336L1280.74 249.44V338H1258.78ZM1390.44 338V213.8H1438.14C1470.54 213.8 1486.74 230.06 1486.74 262.58V289.22C1486.74 321.74 1470.54 338 1438.14 338H1390.44ZM1412.4 318.02H1439.4C1456.32 318.02 1464.78 309.56 1464.78 292.64V259.16C1464.78 242.24 1456.32 233.78 1439.4 233.78H1412.4V318.02Z" fill="black"/>
<path d="M3.61 140.44L44.08 13.9H80.18L120.46 140.44L117.61 145H98.04L89.11 116.12H34.96L25.84 145H6.65L3.61 140.44ZM41.42 95.03H82.84L63.84 34.99H60.23L41.42 95.03ZM185.925 145V13.9H249.005C269.652 13.9 279.975 24.2233 279.975 44.87V70.14C279.975 90.66 269.652 100.92 249.005 100.92H209.105V145H185.925ZM209.105 79.83H248.435C254.009 79.83 256.795 77.0433 256.795 71.47V43.16C256.795 37.7133 254.009 34.99 248.435 34.99H209.105V79.83ZM305.391 114.03V13.9H328.571V115.74C328.571 121.187 331.358 123.91 336.931 123.91H375.501C381.074 123.91 383.861 121.187 383.861 115.74V13.9H407.041V114.03C407.041 134.677 396.718 145 376.071 145H336.361C315.714 145 305.391 134.677 305.391 114.03ZM438.269 145V13.9H501.349C521.996 13.9 532.319 24.2233 532.319 44.87V66.34C532.319 82.3 525.986 91.99 513.319 95.41L536.119 140.06L533.269 145H513.509L489.189 97.12H461.449V145H438.269ZM461.449 76.03H500.779C506.352 76.03 509.139 73.2433 509.139 67.67V43.16C509.139 37.7133 506.352 34.99 500.779 34.99H461.449V76.03ZM560.73 145V13.9H623.81C644.457 13.9 654.78 24.2233 654.78 44.87V70.14C654.78 90.66 644.457 100.92 623.81 100.92H583.91V145H560.73ZM583.91 79.83H623.24C628.813 79.83 631.6 77.0433 631.6 71.47V43.16C631.6 37.7133 628.813 34.99 623.24 34.99H583.91V79.83ZM679.436 114.03V44.87C679.436 24.2233 689.759 13.9 710.406 13.9H753.916C774.562 13.9 784.886 24.2233 784.886 44.87V114.03C784.886 134.677 774.562 145 753.916 145H710.406C689.759 145 679.436 134.677 679.436 114.03ZM702.616 115.74C702.616 121.187 705.402 123.91 710.976 123.91H753.346C758.919 123.91 761.706 121.187 761.706 115.74V43.16C761.706 37.7133 758.919 34.99 753.346 34.99H710.976C705.402 34.99 702.616 37.7133 702.616 43.16V115.74ZM809.6 136.26V123.91H868.31C873.884 123.91 876.67 121.187 876.67 115.74V101.3C876.67 96.4867 874.517 93.6367 870.21 92.75L831.64 84.96C816.947 82.0467 809.6 72.1667 809.6 55.32V44.87C809.6 24.2233 819.924 13.9 840.57 13.9H884.84L896.05 22.64V34.99H841.14C835.567 34.99 832.78 37.7133 832.78 43.16V55.89C832.78 60.7033 834.934 63.5533 839.24 64.44L877.81 72.04C892.504 75.08 899.85 84.96 899.85 101.68V114.03C899.85 134.677 889.527 145 868.88 145H820.81L809.6 136.26ZM926.443 145V13.9H1014.6V34.99H949.623V66.53H1008.9V87.62H949.623V123.91H1014.6V145H926.443ZM1031.63 96.74V77.36H1087.3V96.74H1031.63ZM1111.06 145V13.9H1161.41C1195.61 13.9 1212.71 31.0633 1212.71 65.39V93.51C1212.71 127.837 1195.61 145 1161.41 145H1111.06ZM1134.24 123.91H1162.74C1180.6 123.91 1189.53 114.98 1189.53 97.12V61.78C1189.53 43.92 1180.6 34.99 1162.74 34.99H1134.24V123.91ZM1241.13 145V13.9H1304.21C1324.86 13.9 1335.18 24.2233 1335.18 44.87V66.34C1335.18 82.3 1328.85 91.99 1316.18 95.41L1338.98 140.06L1336.13 145H1316.37L1292.05 97.12H1264.31V145H1241.13ZM1264.31 76.03H1303.64C1309.21 76.03 1312 73.2433 1312 67.67V43.16C1312 37.7133 1309.21 34.99 1303.64 34.99H1264.31V76.03ZM1363.59 145V13.9H1386.77V145H1363.59ZM1406.53 18.46L1409.57 13.9H1429.71L1462.2 123.91H1465.81L1498.3 13.9H1518.63L1521.48 18.46L1482.72 145H1445.1L1406.53 18.46ZM1541.16 145V13.9H1629.32V34.99H1564.34V66.53H1623.62V87.62H1564.34V123.91H1629.32V145H1541.16ZM1654.9 145V13.9H1680.17L1738.31 107.38V13.9H1761.49V145H1736.41L1678.08 51.52V145H1654.9Z" fill="#BB1212"/>
</svg>

<svg xmlns="http://www.w3.org/2000/svg" width="1840" height="368" fill="none" viewBox="0 0 1840 368"><path fill="#000" d="M15.3 338V213.8h21.96v104.22h56.16V338zm95.934-29.34v-65.52q0-29.34 29.34-29.34h41.22q29.34 0 29.34 29.34v65.52q0 29.34-29.34 29.34h-41.22q-29.34 0-29.34-29.34m21.96 1.62q0 7.74 7.92 7.74h40.14q7.92 0 7.92-7.74v-68.76q0-7.74-7.92-7.74h-40.14q-7.92 0-7.92 7.74zM239.948 338V213.8h23.94l55.08 88.56V213.8h21.96V338h-23.76l-55.26-88.56V338zm129.861-29.34v-65.52q0-29.34 29.34-29.34h52.74l10.62 8.28v11.7h-62.82q-7.92 0-7.92 7.74v68.76q0 7.74 7.92 7.74h44.46v-34.38h-26.28v-19.98h48.24V338h-66.96q-29.34 0-29.34-29.34M493.073 338V213.8h83.52v19.98h-61.56v29.88h56.16v19.98h-56.16v34.38h61.56V338zm95.874-119.88 2.88-4.32h19.08l30.78 104.22h3.42l30.78-104.22h19.26l2.7 4.32L661.127 338h-35.64zM716.491 338V213.8h21.96V338zm41.579-104.22V213.8h100.26v19.98h-39.06V338h-22.14V233.78zm108.084-15.66 2.7-4.32h18.72l29.34 56.34 29.52-56.34h18.9l2.52 4.32-39.78 75.24V338h-22.14v-44.64zM1029.73 338V213.8h83.52v19.98h-61.56v35.28h56.16v19.98h-56.16V338zm103.16-29.34V213.8h21.96v96.48q0 7.74 7.92 7.74h36.54q7.92 0 7.92-7.74V213.8h21.96v94.86q0 29.34-29.34 29.34h-37.62q-29.34 0-29.34-29.34M1258.78 338V213.8h23.94l55.08 88.56V213.8h21.96V338H1336l-55.26-88.56V338zm131.66 0V213.8h47.7q48.6 0 48.6 48.78v26.64q0 48.78-48.6 48.78zm21.96-19.98h27q25.38 0 25.38-25.38v-33.48q0-25.38-25.38-25.38h-27z"/><path fill="#bb1212" d="M3.61 140.44 44.08 13.9h36.1l40.28 126.54-2.85 4.56H98.04l-8.93-28.88H34.96L25.84 145H6.65zm37.81-45.41h41.42l-19-60.04h-3.61zM185.925 145V13.9h63.08q30.97 0 30.97 30.97v25.27q0 30.78-30.97 30.78h-39.9V145zm23.18-65.17h39.33q8.36 0 8.36-8.36V43.16q0-8.17-8.36-8.17h-39.33zm96.286 34.2V13.9h23.18v101.84q0 8.17 8.36 8.17h38.57q8.36 0 8.36-8.17V13.9h23.18v100.13q0 30.97-30.97 30.97h-39.71q-30.97 0-30.97-30.97M438.269 145V13.9h63.08q30.97 0 30.97 30.97v21.47q0 23.94-19 29.07l22.8 44.65-2.85 4.94h-19.76l-24.32-47.88h-27.74V145zm23.18-68.97h39.33q8.36 0 8.36-8.36V43.16q0-8.17-8.36-8.17h-39.33zM560.73 145V13.9h63.08q30.97 0 30.97 30.97v25.27q0 30.78-30.97 30.78h-39.9V145zm23.18-65.17h39.33q8.36 0 8.36-8.36V43.16q0-8.17-8.36-8.17h-39.33zm95.526 34.2V44.87q0-30.97 30.97-30.97h43.51q30.97 0 30.97 30.97v69.16q0 30.97-30.97 30.97h-43.51q-30.97 0-30.97-30.97m23.18 1.71q0 8.17 8.36 8.17h42.37q8.36 0 8.36-8.17V43.16q0-8.17-8.36-8.17h-42.37q-8.36 0-8.36 8.17zM809.6 136.26v-12.35h58.71q8.36 0 8.36-8.17V101.3q0-7.22-6.46-8.55l-38.57-7.79q-22.04-4.37-22.04-29.64V44.87q0-30.97 30.97-30.97h44.27l11.21 8.74v12.35h-54.91q-8.36 0-8.36 8.17v12.73q0 7.22 6.46 8.55l38.57 7.6q22.04 4.56 22.04 29.64v12.35q0 30.97-30.97 30.97h-48.07zM926.443 145V13.9h88.157v21.09h-64.977v31.54h59.277v21.09h-59.277v36.29h64.977V145zm105.187-48.26V77.36h55.67v19.38zm79.43 48.26V13.9h50.35q51.3 0 51.3 51.49v28.12q0 51.49-51.3 51.49zm23.18-21.09h28.5q26.79 0 26.79-26.79V61.78q0-26.79-26.79-26.79h-28.5zM1241.13 145V13.9h63.08c20.65 0 30.97 10.323 30.97 30.97v21.47c0 15.96-6.33 25.65-19 29.07l22.8 44.65-2.85 4.94h-19.76l-24.32-47.88h-27.74V145zm23.18-68.97h39.33c5.57 0 8.36-2.787 8.36-8.36V43.16c0-5.447-2.79-8.17-8.36-8.17h-39.33zm99.28 68.97V13.9h23.18V145zm42.94-126.54 3.04-4.56h20.14l32.49 110.01h3.61L1498.3 13.9h20.33l2.85 4.56L1482.72 145h-37.62zM1541.16 145V13.9h88.16v21.09h-64.98v31.54h59.28v21.09h-59.28v36.29h64.98V145zm113.74 0V13.9h25.27l58.14 93.48V13.9h23.18V145h-25.08l-58.33-93.48V145z"/></svg>
